X: 1
T: Elverton Grove
Z: Bruce Shawyer 28 November 2002
F: http://www.math.mun.ca/~bshawyer/englishabc/Elverton%20Grove.abc
C: G.F.Handel 1707 (in the opera Rodrigo)
M: 4/4
K: G
M: 4/4
L: 1/16
D4 |
G4 e4 d4 c4 | B8 A4 G2A2 | B4 D4 A4 D4 | B4 D4 A4 D4 |\
G4 e4 d4 c4 | B8 A6 B2 | c4 B2A2 B4 A2G2 | G12 ||
D4 |\
G4 e4 d4 c4 | B8 A4 G2A2 | B4 D4 A4 D4 | B4 D4 A4 D4 |\
G4 e4 d4 c4 | B8 A6 B2 | c4 B2A2 B4 A2G2 | G12 ||
c4 |\
B4 A4 G4 F4 | E8 e8 | B4 A4 G4 F4 | E2^D2 E2F2 E4 c4 |\
B4 A4 G4 F4 | E8 e8 | B4 A4 G4 F4 | E12 ||
e2f2 |\
g4 f2e2 f4 e2d2 | e4 d2c2 d4 c2B2 | c4 B2A2 B4 A2G2 | A2G2 F2E2 D4 d4 |\
d12 d4 | d12 e2 f2 |
g4 f2e2 f4 e2d2 | e4 d2c2 d4 c2B2 | c4 B2A2 B4 A2G2 | A2G2 F2E2 D4 d4 |\
e4 G4 d4 G4 | c8 B8 | E2F2 G4 D4 F4 | G12 |]
